X:32
T:And when we part we'll meet again
T:pretty
Z:Jack Campin - http://www.campin.me.uk
S:Blaikie MS (NLS MS.1578) p12, Blaikie #31
M:3/4
L:1/8
V:1 midi program 1 74
V:2 midi program 1 46 bass middle = d transpose -24
Q:1/4=100
K:C Minor
[V:1] G2|cG  c2 cd|ef        d3  d|ed c2  GB|=AG3   
[V:2] z2|c2  c2 c2|G2        g2 g2|cd e2 =e2| f2 g2 
%
[V:1] zc|B_A G2 CD|E/F/G/=A/ B3  G|Bc G3   F| E C3 |]
[V:2] z2|d2  e2 a2|g```e     d2 e2|ga b2  B2| c2 c2|]
W:Transcription (c) Jack Campin 2009, no mirroring or republication without permission

